public/sports/volleyball.svg

<svg width="45" height="45" viewBox="0 0 45 45" fill="none" xmlns="http://www.w3.org/2000/svg">
<path d="M22.8516 5.3125C19.4522 5.3125 16.1292 6.32053 13.3027 8.20912C10.4762 10.0977 8.27327 12.782 6.97239 15.9226C5.67151 19.0632 5.33114 22.5191 5.99432 25.8531C6.65751 29.1872 8.29446 32.2497 10.6982 34.6534C13.1019 37.0571 16.1644 38.6941 19.4985 39.3572C22.8325 40.0204 26.2883 39.6801 29.4289 38.3792C32.5695 37.0783 35.2539 34.8753 37.1425 32.0489C39.031 29.2224 40.0391 25.8994 40.0391 22.5C40.0341 17.9431 38.2216 13.5743 34.9994 10.3521C31.7772 7.12993 27.4084 5.3175 22.8516 5.3125ZM37.4609 28.5483C34.9053 30.3501 31.8728 31.3538 28.7468 31.4325C25.6209 31.5111 22.5417 30.6611 19.8988 28.99L23.2486 23.1875H38.6486C38.5697 25.0302 38.1677 26.8447 37.4609 28.5483ZM15.5503 8.47844C17.1854 7.62231 18.9589 7.06197 20.7891 6.82328C23.6266 8.1363 26.0113 10.2611 27.6416 12.929C29.2718 15.597 30.0746 18.6884 29.9483 21.8125H23.2452L15.5503 8.47844ZM38.6486 21.8125H31.3233C31.4335 18.8234 30.7622 15.8572 29.3757 13.2068C27.9892 10.5565 25.9354 8.31354 23.417 6.69953C27.3897 6.84618 31.1617 8.48202 33.9837 11.282C36.8056 14.082 38.4709 17.8411 38.6486 21.8125ZM14.3592 9.16594L18.0202 15.5064C15.3772 16.9052 13.1445 18.9688 11.5422 21.4936C9.93997 24.0185 9.02353 26.9173 8.88329 29.9044C7.01921 26.3928 6.54763 22.3074 7.56262 18.4635C8.5776 14.6195 11.0045 11.2996 14.3592 9.16594ZM10.3047 32.1147C10.0248 29.0025 10.6732 25.8772 12.1682 23.1333C13.6631 20.3893 15.9375 18.1498 18.7042 16.6975L22.0575 22.5L14.3592 35.8341C12.8024 34.8386 11.4304 33.5801 10.3047 32.1147ZM22.8516 38.3125C20.3087 38.3154 17.8032 37.7009 15.5503 36.5216L19.2113 30.1811C21.7434 31.7703 24.646 32.672 27.6328 32.7974C30.6197 32.9227 33.5877 32.2675 36.2441 30.8961C34.8223 33.1651 32.8476 35.0359 30.5052 36.3331C28.1627 37.6303 25.5292 38.3114 22.8516 38.3125Z" fill="white" stroke="black" stroke-width="0.5"/>
</svg>

<svg xmlns="http://www.w3.org/2000/svg" width="45" height="45" fill="none"><path fill="#fff" stroke="#000" stroke-width=".5" d="M22.85 5.31a17.19 17.19 0 1 0 0 34.38 17.19 17.19 0 0 0 0-34.38Zm14.61 23.24a15.81 15.81 0 0 1-17.56.44l3.35-5.8h15.4a15.75 15.75 0 0 1-1.19 5.36ZM15.55 8.48c1.64-.86 3.4-1.42 5.24-1.66a15.81 15.81 0 0 1 9.16 15h-6.7l-7.7-13.34Zm23.1 13.33h-7.33a17.2 17.2 0 0 0-7.9-15.11 15.83 15.83 0 0 1 15.23 15.11ZM14.35 9.17l3.67 6.34a17.2 17.2 0 0 0-9.14 14.4 15.8 15.8 0 0 1 5.48-20.74ZM10.3 32.1a15.81 15.81 0 0 1 8.4-15.41l3.36 5.8-7.7 13.33c-1.56-1-2.93-2.25-4.06-3.72Zm12.55 6.2a15.7 15.7 0 0 1-7.3-1.79l3.66-6.34a17.2 17.2 0 0 0 17.03.72 15.81 15.81 0 0 1-13.39 7.41Z"/></svg>
